X: 991
T: Allery Burn
R: slip jig
M: 9/8
K: Fmajor
|:ABc fcA cAF|G2c {d}c=Bc ecG|A3 AGA cAG|Ffe dcA BAG|
F2f- fcA cAF|G2c {d}c=Bc ecG|A3 AGA cAF|Bcd cAF BGE|
F2f- fcA cAF|G2c {d}c=Bc ecG|A3 AGA cAG|Ffe dcA BAG|
F2f- fcA cAF|G2c {d}c=Bc ecG|A3 AGA cAF|Bcd cAF BGE||
|:B3 BAB fcA|B3 BAB fcG|A3 AGA cAF|GAc AGA cAF|
B3 BAB fcA|B3 BAB fcG|A3 AGA cAc|agf edc fcA:|
|:Bef dBG fAf|Bef dBG fAf|Aef cAF fGf|Aef cAF fGf|
Bef dBG fAf|Bef dBG fAf|Aef cAc fcf|1 agf edc fcA:|2 agf edc fcG||

